design/assets/logos/container-registry.svg

<?xml version="1.0" encoding="UTF-8"?>
<svg width="120px" height="51px" viewBox="0 0 120 51" version="1.1" xmlns="http://www.w3.org/2000/svg" xmlns:xlink="http://www.w3.org/1999/xlink">
    <!-- Generator: Sketch 52.6 (67491) - http://www.bohemiancoding.com/sketch -->
    <title>Artboard</title>
    <desc>Created with Sketch.</desc>
    <g id="Artboard" stroke="none" stroke-width="1" fill="none" fill-rule="evenodd">
        <path d="M42.8773021,15.6854317 C45.7784665,15.6854317 47.6150101,17.3550829 48.0953257,19.9224625 L45.9664477,19.9224625 C45.4654069,18.5658709 44.5887673,17.6474173 42.8773021,17.6474173 C40.6229821,17.6474173 39.2456653,19.6094029 39.2456653,22.3018609 C39.2456653,24.9732301 40.6022569,26.9563045 42.8773021,26.9563045 C44.5887673,26.9563045 45.4654069,26.0378509 45.9664477,24.6605341 L48.0953257,24.6605341 C47.6150101,27.2486389 45.7573777,28.9182901 42.8773021,28.9182901 C39.5794501,28.9182901 37.0538845,26.2465573 37.0538845,22.3018609 C37.0538845,18.3571645 39.5794501,15.6854317 42.8773021,15.6854317 Z M53.5282005,21.0286428 C52.0254417,21.0286428 51.2113413,22.3226952 51.2113413,24.0759744 C51.2113413,25.8292536 52.0254417,27.123306 53.5282005,27.123306 C55.0309593,27.123306 55.8450597,25.8292536 55.8450597,24.0759744 C55.8450597,22.3226952 55.0309593,21.0286428 53.5282005,21.0286428 Z M53.5282005,28.9183992 C50.9193705,28.9183992 49.1242773,26.9145996 49.1242773,24.0759744 C49.1242773,21.2373492 50.9193705,19.2335496 53.5282005,19.2335496 C56.1370305,19.2335496 57.9321237,21.2373492 57.9321237,24.0759744 C57.9321237,26.9145996 56.1370305,28.9183992 53.5282005,28.9183992 Z M59.449681,19.4423287 L61.536745,19.4423287 L61.536745,20.3189683 C62.0377858,19.7346631 62.9562394,19.2336223 64.0415854,19.2336223 C66.1493746,19.2336223 67.3183486,20.6320279 67.3183486,22.6772779 L67.3183486,28.7094019 L65.2312846,28.7094019 L65.2312846,23.0325151 C65.2312846,21.8842663 64.6677046,21.1330687 63.4780054,21.1330687 C62.580277,21.1330687 61.7665402,21.6966487 61.536745,22.6151023 L61.536745,28.7094019 L59.449681,28.7094019 L59.449681,19.4423287 Z M69.7543959,21.1747372 L68.2930875,21.1747372 L68.2930875,19.4421832 L69.7543959,19.4421832 L69.7543959,16.9584316 L71.8414599,16.9584316 L71.8414599,19.4421832 L73.9285239,19.4421832 L73.9285239,21.1747372 L71.8414599,21.1747372 L71.8414599,25.975348 C71.8414599,26.7269092 72.2588727,27.060694 72.9478947,27.060694 C73.3653075,27.060694 73.8452595,26.8938016 74.1375939,26.6847316 L74.1375939,28.584178 C73.7827203,28.7928844 73.2191403,28.9183264 72.5722959,28.9183264 C70.9230063,28.9183264 69.7543959,28.0416868 69.7543959,26.2047796 L69.7543959,21.1747372 Z M80.9459312,25.47438 C80.7164996,24.8900748 79.8813104,24.5352012 79.0464848,24.5352012 C78.107306,24.5352012 77.1263132,24.9315252 77.1263132,25.8499788 C77.1263132,26.7891576 78.107306,27.1858452 79.0464848,27.1858452 C79.8813104,27.1858452 80.7164996,26.8309716 80.9459312,26.2466664 L80.9459312,25.47438 Z M80.9459312,28.7093292 L80.9459312,28.1875632 C80.6328716,28.5006228 79.6936928,28.8762216 78.6501608,28.8762216 C76.7507144,28.8762216 75.1854164,27.7494252 75.1854164,25.8499788 C75.1854164,24.0966996 76.7507144,22.8651864 78.7959644,22.8651864 C79.63079,22.8651864 80.5703324,23.1575208 80.9459312,23.42913 L80.9459312,22.6775688 C80.9459312,21.73839 80.361626,21.007554 79.1719268,21.007554 C78.3367376,21.007554 77.8149716,21.3624276 77.58554,22.0096356 L75.5817404,22.0096356 C75.8533496,20.4232488 77.3142944,19.2335496 79.2133772,19.2335496 C81.5513252,19.2335496 82.928642,20.5279656 82.928642,22.6357548 L82.928642,28.7093292 L80.9459312,28.7093292 Z M84.8742656,28.7096564 L84.8742656,19.4425832 L86.9613296,19.4425832 L86.9613296,28.7096564 L84.8742656,28.7096564 Z M85.9177976,17.9187356 C85.2287756,17.9187356 84.6237452,17.3551556 84.6237452,16.6454084 C84.6237452,15.9360248 85.2287756,15.3724448 85.9177976,15.3724448 C86.606456,15.3724448 87.21185,15.9360248 87.21185,16.6454084 C87.21185,17.3551556 86.606456,17.9187356 85.9177976,17.9187356 Z M89.0298136,19.4423287 L91.1168776,19.4423287 L91.1168776,20.3189683 C91.6179184,19.7346631 92.536372,19.2336223 93.621718,19.2336223 C95.7295072,19.2336223 96.8984812,20.6320279 96.8984812,22.6772779 L96.8984812,28.7094019 L94.8114172,28.7094019 L94.8114172,23.0325151 C94.8114172,21.8842663 94.2478372,21.1330687 93.058138,21.1330687 C92.1604096,21.1330687 91.3466728,21.6966487 91.1168776,22.6151023 L91.1168776,28.7094019 L89.0298136,28.7094019 L89.0298136,19.4423287 Z M100.432273,23.0323333 L104.62749,23.0323333 C104.606765,21.9051733 103.959557,20.9870833 102.686593,20.9870833 C101.538344,20.9870833 100.682794,21.6964669 100.432273,23.0323333 Z M106.610564,25.8291445 C106.297141,27.6660517 104.94055,28.9182901 102.707318,28.9182901 C100.119214,28.9182901 98.3241205,26.9563045 98.3241205,24.0969541 C98.3241205,21.3208681 100.139939,19.2338041 102.665504,19.2338041 C105.274698,19.2338041 106.693829,21.0914365 106.693829,23.8046197 L106.693829,24.5558173 L100.369734,24.5558173 C100.432273,26.1840181 101.371452,27.1650109 102.707318,27.1650109 C103.7094,27.1650109 104.460598,26.7268729 104.690029,25.8291445 L106.610564,25.8291445 Z M113.412684,21.5504088 C113.120713,21.3417024 112.619673,21.2373492 112.181171,21.2373492 C111.32562,21.2373492 110.532609,21.7173012 110.323539,22.7193828 L110.323539,28.7093292 L108.236475,28.7093292 L108.236475,19.442256 L110.323539,19.442256 L110.323539,20.4025236 C110.678412,19.7138652 111.492513,19.2335496 112.389877,19.2335496 C112.849104,19.2335496 113.266517,19.3171776 113.412684,19.400442 L113.412684,21.5504088 Z M40.4592166,38.1696921 L43.1934886,38.1696921 C44.6333446,38.1696921 45.447445,37.3974057 45.447445,36.2077065 C45.447445,35.0180073 44.6333446,34.2457209 43.1934886,34.2457209 L40.4592166,34.2457209 L40.4592166,38.1696921 Z M40.4592166,39.9855105 L40.4592166,45.1828089 L38.2885246,45.1828089 L38.2885246,32.3673633 L43.2353026,32.3673633 C45.8859466,32.3673633 47.5974118,33.7032297 47.5974118,36.2077065 C47.5974118,38.3576733 46.3448098,39.5888229 44.3206486,39.9022461 L48.0355498,45.1828089 L45.572887,45.1828089 L42.0037894,39.9855105 L40.4592166,39.9855105 Z M50.5654423,39.5054858 L54.7606591,39.5054858 C54.7399339,38.3783258 54.0927259,37.4602358 52.8197623,37.4602358 C51.6715135,37.4602358 50.8159627,38.1696194 50.5654423,39.5054858 Z M56.7437335,42.302297 C56.4303103,44.1392042 55.0737187,45.3914426 52.8404875,45.3914426 C50.2523827,45.3914426 48.4572895,43.429457 48.4572895,40.5701066 C48.4572895,37.7940206 50.2731079,35.7069566 52.7986735,35.7069566 C55.4078671,35.7069566 56.8269979,37.564589 56.8269979,40.2777722 L56.8269979,41.0289698 L50.5029031,41.0289698 C50.5654423,42.6571706 51.5046211,43.6381634 52.8404875,43.6381634 C53.8425691,43.6381634 54.5937667,43.2000254 54.8231983,42.302297 L56.7437335,42.302297 Z M64.4516535,38.6497532 C64.0967799,38.023634 63.3244935,37.543682 62.4478539,37.543682 C60.8407419,37.543682 59.9222883,38.7541064 59.9222883,40.4030324 C59.9222883,42.0519584 60.8407419,43.2623828 62.4478539,43.2623828 C63.3244935,43.2623828 64.0967799,42.7824308 64.4516535,42.1563116 L64.4516535,38.6497532 Z M64.4516535,44.1390224 C64.0342407,44.6400632 63.1365123,45.09929 62.0929803,45.09929 C59.3590719,45.09929 57.7934103,42.84497 57.7934103,40.4030324 C57.7934103,37.9607312 59.3590719,35.7067748 62.0929803,35.7067748 C63.1365123,35.7067748 64.0342407,36.1660016 64.4516535,36.6666788 L64.4516535,35.9154812 L66.5387175,35.9154812 L66.5387175,44.410268 C66.5387175,47.5412276 64.6396347,48.9396332 62.1766083,48.9396332 C59.8179351,48.9396332 58.2944511,47.70812 58.0650195,45.6835952 L60.0891807,45.6835952 C60.2982507,46.706402 61.0287231,47.228168 62.1766083,47.228168 C63.7211811,47.228168 64.4516535,46.2889892 64.4516535,44.5564352 L64.4516535,44.1390224 Z M68.6304356,45.1825544 L68.6304356,35.9154812 L70.7174996,35.9154812 L70.7174996,45.1825544 L68.6304356,45.1825544 Z M69.6739676,34.3919972 C68.9849456,34.3919972 68.3799152,33.8284172 68.3799152,33.11867 C68.3799152,32.4089228 68.9849456,31.8457064 69.6739676,31.8457064 C70.3629896,31.8457064 70.96802,32.4089228 70.96802,33.11867 C70.96802,33.8284172 70.3629896,34.3919972 69.6739676,34.3919972 Z M74.2805978,42.5110398 C74.5100294,43.2833262 75.1990514,43.6800138 76.1171414,43.6800138 C77.077409,43.6800138 77.7035282,43.3040514 77.7035282,42.573579 C77.7035282,42.0725382 77.3904686,41.8012926 76.6181822,41.613675 L74.6980106,41.1544482 C73.383233,40.8413886 72.4018766,40.1316414 72.4018766,38.6081574 C72.4018766,36.9381426 73.8839102,35.706993 75.9087986,35.706993 C78.079127,35.706993 79.3106402,36.750525 79.6236998,38.4409014 L77.5784498,38.4409014 C77.3904686,37.835871 76.8479774,37.4184582 75.8877098,37.4184582 C75.1572374,37.4184582 74.4056762,37.752243 74.4056762,38.4827154 C74.4056762,38.9001282 74.6980106,39.1713738 75.3659438,39.3382662 L77.3279294,39.7978566 C78.9143162,40.1734554 79.7073278,41.0708202 79.7073278,42.4277754 C79.7073278,44.264319 78.1834802,45.391479 76.0964162,45.391479 C73.9257242,45.391479 72.4229654,44.306133 72.1517198,42.5110398 L74.2805978,42.5110398 Z M81.9154706,37.6478898 L80.4541622,37.6478898 L80.4541622,35.9153358 L81.9154706,35.9153358 L81.9154706,33.4315842 L84.0025346,33.4315842 L84.0025346,35.9153358 L86.0895986,35.9153358 L86.0895986,37.6478898 L84.0025346,37.6478898 L84.0025346,42.4485006 C84.0025346,43.2000618 84.4199474,43.5338466 85.1089694,43.5338466 C85.5263822,43.5338466 86.0063342,43.3669542 86.2986686,43.1578842 L86.2986686,45.0573306 C85.943795,45.266037 85.380215,45.391479 84.7333706,45.391479 C83.084081,45.391479 81.9154706,44.5148394 81.9154706,42.6779322 L81.9154706,37.6478898 Z M92.914916,38.0235613 C92.6229452,37.8148549 92.1219044,37.7105017 91.6834028,37.7105017 C90.827852,37.7105017 90.0348404,38.1904537 89.8257704,39.1925353 L89.8257704,45.1824817 L87.7387064,45.1824817 L87.7387064,35.9154085 L89.8257704,35.9154085 L89.8257704,36.8756761 C90.180644,36.1870177 90.9947444,35.7067021 91.8921092,35.7067021 C92.351336,35.7067021 92.7687488,35.7903301 92.914916,35.8735945 L92.914916,38.0235613 Z M96.0207872,48.7309632 L97.3359284,45.4331112 L93.745742,35.9155176 L95.9789732,35.9155176 L98.4001856,42.7406532 L100.779584,35.9155176 L102.929551,35.9155176 L98.045312,48.7309632 L96.0207872,48.7309632 Z M103.080808,43.6352182 L102.888828,43.6352182 L102.888828,43.8930106 L103.080808,43.8930106 C103.174254,43.8930106 103.223703,43.8384706 103.223703,43.7668414 C103.223703,43.6901218 103.174254,43.6352182 103.080808,43.6352182 Z M102.888828,44.112625 L102.888828,44.4587722 L102.61431,44.4587722 L102.61431,43.4046958 L103.102988,43.4046958 C103.338601,43.4046958 103.48695,43.5366826 103.48695,43.7668414 C103.48695,43.9315522 103.41023,44.0413594 103.278243,44.085355 L103.525491,44.4587722 L103.223703,44.4587722 L103.004089,44.112625 L102.888828,44.112625 Z M103.020451,43.1029078 C102.570314,43.1029078 102.208168,43.4486914 102.208168,43.9373698 C102.208168,44.4256846 102.570314,44.7714682 103.020451,44.7714682 C103.470588,44.7714682 103.832733,44.4256846 103.832733,43.9373698 C103.832733,43.4486914 103.470588,43.1029078 103.020451,43.1029078 Z M103.020451,44.941633 C102.476869,44.941633 102.027096,44.5191298 102.027096,43.9373698 C102.027096,43.3552462 102.476869,42.932743 103.020451,42.932743 C103.564033,42.932743 104.013806,43.3552462 104.013806,43.9373698 C104.013806,44.5191298 103.564033,44.941633 103.020451,44.941633 Z" id="Shape" fill="#FFAE1A"></path>
        <path d="M14.6344212,15.3746264 L17.4723192,15.3746264 L17.4723192,12.5367284 L14.6344212,12.5367284 L14.6344212,15.3746264 Z M11.7961596,18.212888 L11.7961596,9.6984668 L20.3105808,9.6984668 L20.3105808,18.212888 L11.7961596,18.212888 Z M6.12,4.0226708 L14.6340576,4.0226708 L14.6340576,6.8605688 L8.9582616,6.8605688 L8.9582616,20.3595824 L16.053552,22.3735628 L23.1481152,20.3595824 L23.1481152,15.3746264 L25.9863768,15.3746264 L25.9863768,22.536092 L16.053552,25.3561736 L6.12,22.536092 L6.12,4.0226708 Z M23.1481152,12.5367284 L23.1481152,9.6984668 L25.9863768,9.6984668 L25.9863768,12.5367284 L23.1481152,12.5367284 Z M17.4719556,6.8605688 L17.4719556,4.0226708 L20.3102172,4.0226708 L20.3102172,6.8605688 L17.4719556,6.8605688 Z M23.1481152,6.8605688 L23.1481152,4.0226708 L25.9863768,4.0226708 L25.9863768,6.8605688 L23.1481152,6.8605688 Z" id="bug" fill="#FFAE1A"></path>
        <path d="M41.2654269,8.73318152 C42.2242401,8.73318152 42.7969101,7.96016792 42.7969101,6.94426952 C42.7969101,5.91382712 42.2242401,5.14081352 41.2654269,5.14081352 C40.7360253,5.14081352 40.2778893,5.45569112 40.0630017,5.88510272 L40.0630017,7.98889232 C40.2778893,8.43248432 40.7502057,8.73318152 41.2654269,8.73318152 Z M41.6661141,3.59514992 C43.5266553,3.59514992 44.5858221,5.14081352 44.5858221,6.94426952 C44.5858221,8.74736192 43.5266553,10.2788451 41.6661141,10.2788451 C40.9792737,10.2788451 40.3491549,9.94978712 40.0630017,9.60618512 L40.0630017,12.4971687 L38.2882701,12.4971687 L38.2882701,3.73804472 L40.0630017,3.73804472 L40.0630017,4.26780992 C40.3491549,3.92420792 40.9792737,3.59514992 41.6661141,3.59514992 Z M49.2376478,7.80287456 L49.2376478,3.73819016 L51.0265598,3.73819016 L51.0265598,10.1357322 L49.2518282,10.1357322 L49.2518282,9.54888176 C48.8940458,9.94956896 48.278471,10.2789906 47.5345454,10.2789906 C46.1030522,10.2789906 45.2874974,9.33435776 45.2874974,7.91740856 L45.2874974,3.73819016 L47.062229,3.73819016 L47.062229,7.55962616 C47.062229,8.23228616 47.391287,8.69005856 48.0926714,8.69005856 C48.636617,8.69005856 49.1089334,8.36100056 49.2376478,7.80287456 Z M55.177381,8.73318152 C56.1365578,8.73318152 56.7088642,7.96016792 56.7088642,6.94426952 C56.7088642,5.91382712 56.1365578,5.14081352 55.177381,5.14081352 C54.6476158,5.14081352 54.1898434,5.45569112 53.9753194,5.88510272 L53.9753194,7.98889232 C54.1898434,8.43248432 54.6621598,8.73318152 55.177381,8.73318152 Z M55.5780682,3.59514992 C57.4386094,3.59514992 58.4977762,5.14081352 58.4977762,6.94426952 C58.4977762,8.74736192 57.4386094,10.2788451 55.5780682,10.2788451 C54.8912278,10.2788451 54.2614726,9.94978712 53.9753194,9.60618512 L53.9753194,12.4971687 L52.2002242,12.4971687 L52.2002242,3.73804472 L53.9753194,3.73804472 L53.9753194,4.26780992 C54.2614726,3.92420792 54.8912278,3.59514992 55.5780682,3.59514992 Z M62.2478739,8.73318152 C63.2070507,8.73318152 63.7793571,7.96016792 63.7793571,6.94426952 C63.7793571,5.91382712 63.2070507,5.14081352 62.2478739,5.14081352 C61.7181087,5.14081352 61.2603363,5.45569112 61.0458123,5.88510272 L61.0458123,7.98889232 C61.2603363,8.43248432 61.7326527,8.73318152 62.2478739,8.73318152 Z M62.6485611,3.59514992 C64.5094659,3.59514992 65.5682691,5.14081352 65.5682691,6.94426952 C65.5682691,8.74736192 64.5094659,10.2788451 62.6485611,10.2788451 C61.9617207,10.2788451 61.3319655,9.94978712 61.0458123,9.60618512 L61.0458123,12.4971687 L59.2707171,12.4971687 L59.2707171,3.73804472 L61.0458123,3.73804472 L61.0458123,4.26780992 C61.3319655,3.92420792 61.9617207,3.59514992 62.6485611,3.59514992 Z M67.758341,6.24266696 L70.234457,6.24266696 C70.2202766,5.57000696 69.8192258,5.04060536 69.0894806,5.04060536 C68.4022766,5.04060536 67.9157798,5.45547296 67.758341,6.24266696 Z M69.0753002,3.59493176 C70.9500218,3.59493176 71.9804642,4.89734696 71.9804642,6.77243216 L71.9804642,7.31637776 L67.7154362,7.31637776 C67.772885,8.27519096 68.316467,8.84749736 69.103661,8.84749736 C69.7050554,8.84749736 70.1486474,8.59006856 70.2915422,8.04612296 L71.9375594,8.04612296 C71.7084914,9.40562336 70.7067734,10.2789906 69.103661,10.2789906 C67.2431198,10.2789906 65.9977898,8.91912656 65.9977898,6.94405136 C65.9977898,5.01188096 67.2860246,3.59493176 69.0753002,3.59493176 Z M75.6446068,8.70442076 C75.9165796,8.70442076 76.2172768,8.61861116 76.4172568,8.48989676 L76.4172568,10.0642848 C76.174372,10.1929992 75.7445968,10.2646284 75.272644,10.2646284 C73.9702288,10.2646284 73.1543104,9.62069276 73.1543104,8.20374356 L73.1543104,5.16950156 L72.1809532,5.16950156 L72.1809532,3.73800836 L73.1543104,3.73800836 L73.1543104,2.00654516 L74.914498,2.00654516 L74.914498,3.73800836 L76.3172668,3.73800836 L76.3172668,5.16950156 L74.914498,5.16950156 L74.914498,7.97467556 C74.914498,8.47571636 75.1864708,8.70442076 75.6446068,8.70442076 Z" id="Shape" fill="#090A0A"></path>
    </g>
</svg>

<svg width="120" height="51" xmlns="http://www.w3.org/2000/svg"><g fill="none" fill-rule="evenodd"><path d="M42.877 15.685c2.901 0 4.738 1.67 5.218 4.237h-2.129c-.5-1.356-1.377-2.275-3.089-2.275-2.254 0-3.631 1.962-3.631 4.655 0 2.671 1.356 4.654 3.631 4.654 1.712 0 2.588-.918 3.09-2.295h2.128c-.48 2.588-2.338 4.257-5.218 4.257-3.298 0-5.823-2.671-5.823-6.616s2.525-6.617 5.823-6.617zm10.651 5.344c-1.503 0-2.317 1.294-2.317 3.047 0 1.753.814 3.047 2.317 3.047 1.503 0 2.317-1.294 2.317-3.047 0-1.753-.814-3.047-2.317-3.047zm0 7.89c-2.609 0-4.404-2.004-4.404-4.843s1.795-4.842 4.404-4.842 4.404 2.003 4.404 4.842c0 2.839-1.795 4.842-4.404 4.842zm5.922-9.477h2.087v.877c.5-.584 1.42-1.085 2.505-1.085 2.107 0 3.276 1.398 3.276 3.443v6.032h-2.087v-5.676c0-1.149-.563-1.9-1.753-1.9-.898 0-1.711.564-1.941 1.482v6.094H59.45v-9.267zm10.304 1.733h-1.46v-1.733h1.46v-2.484h2.087v2.484h2.088v1.733H71.84v4.8c0 .752.418 1.086 1.107 1.086.417 0 .897-.167 1.19-.376v1.9c-.355.208-.919.333-1.566.333-1.649 0-2.818-.876-2.818-2.713v-5.03zm11.192 4.3c-.23-.585-1.065-.94-1.9-.94-.939 0-1.92.397-1.92 1.315 0 .94.981 1.336 1.92 1.336.835 0 1.67-.355 1.9-.94v-.772zm0 3.234v-.521c-.313.313-1.252.688-2.296.688-1.9 0-3.465-1.127-3.465-3.026 0-1.753 1.566-2.985 3.611-2.985.835 0 1.774.293 2.15.564v-.751c0-.94-.584-1.67-1.774-1.67-.835 0-1.357.354-1.586 1.002h-2.004c.271-1.587 1.732-2.776 3.631-2.776 2.338 0 3.716 1.294 3.716 3.402v6.073h-1.983zm3.928 0v-9.266h2.087v9.267h-2.087zm1.044-10.79c-.69 0-1.294-.564-1.294-1.274 0-.709.605-1.273 1.294-1.273.688 0 1.294.564 1.294 1.273 0 .71-.606 1.274-1.294 1.274zm3.112 1.523h2.087v.877c.5-.584 1.42-1.085 2.505-1.085 2.108 0 3.276 1.398 3.276 3.443v6.032h-2.087v-5.676c0-1.149-.563-1.9-1.753-1.9-.898 0-1.711.564-1.941 1.482v6.094H89.03v-9.267zm11.402 3.59h4.195c-.02-1.127-.667-2.045-1.94-2.045-1.149 0-2.004.71-2.255 2.045zm6.179 2.797c-.314 1.837-1.67 3.09-3.904 3.09-2.588 0-4.383-1.963-4.383-4.822 0-2.776 1.816-4.863 4.342-4.863 2.609 0 4.028 1.857 4.028 4.57v.752h-6.324c.062 1.628 1.001 2.609 2.337 2.609 1.002 0 1.754-.438 1.983-1.336h1.92zm6.802-4.279c-.292-.208-.793-.313-1.232-.313-.855 0-1.648.48-1.857 1.482v5.99h-2.088v-9.267h2.088v.96c.354-.688 1.169-1.168 2.066-1.168.46 0 .877.083 1.023.166v2.15zM40.459 38.17h2.734c1.44 0 2.254-.773 2.254-1.962 0-1.19-.814-1.962-2.254-1.962H40.46v3.924zm0 1.816v5.197h-2.17V32.367h4.946c2.65 0 4.362 1.336 4.362 3.84 0 2.15-1.252 3.382-3.276 3.695l3.715 5.28h-2.463l-3.57-5.196H40.46zm10.106-.48h4.196c-.021-1.128-.668-2.046-1.941-2.046-1.148 0-2.004.71-2.255 2.045zm6.179 2.796c-.314 1.837-1.67 3.09-3.904 3.09-2.588 0-4.383-1.963-4.383-4.822 0-2.776 1.816-4.863 4.342-4.863 2.609 0 4.028 1.858 4.028 4.57v.752h-6.324c.062 1.628 1.002 2.61 2.337 2.61 1.003 0 1.754-.439 1.983-1.337h1.92zm7.708-3.652c-.355-.626-1.128-1.106-2.004-1.106-1.607 0-2.526 1.21-2.526 2.859s.919 2.86 2.526 2.86c.876 0 1.649-.48 2.004-1.107V38.65zm0 5.489c-.418.501-1.315.96-2.359.96-2.734 0-4.3-2.254-4.3-4.696 0-2.442 1.566-4.696 4.3-4.696 1.044 0 1.941.459 2.359.96v-.752h2.087v8.495c0 3.131-1.9 4.53-4.362 4.53-2.36 0-3.883-1.232-4.112-3.256h2.024c.21 1.022.94 1.544 2.088 1.544 1.544 0 2.275-.939 2.275-2.672v-.417zm4.178 1.044v-9.268h2.087v9.268H68.63zm1.044-10.791c-.69 0-1.294-.564-1.294-1.273 0-.71.605-1.273 1.294-1.273.689 0 1.294.563 1.294 1.273s-.605 1.273-1.294 1.273zm4.607 8.119c.229.772.918 1.169 1.836 1.169.96 0 1.587-.376 1.587-1.106 0-.501-.314-.773-1.086-.96l-1.92-.46c-1.315-.313-2.296-1.022-2.296-2.546 0-1.67 1.482-2.901 3.507-2.901 2.17 0 3.402 1.044 3.715 2.734h-2.046c-.188-.605-.73-1.023-1.69-1.023-.73 0-1.482.334-1.482 1.065 0 .417.292.688.96.855l1.962.46c1.586.375 2.38 1.273 2.38 2.63 0 1.836-1.525 2.963-3.612 2.963-2.17 0-3.673-1.085-3.944-2.88h2.129zm7.634-4.863h-1.46v-1.733h1.46v-2.483h2.088v2.483h2.087v1.733h-2.087v4.8c0 .752.417 1.086 1.106 1.086.417 0 .897-.167 1.19-.376v1.9c-.355.208-.919.333-1.566.333-1.649 0-2.818-.876-2.818-2.713v-5.03zm11 .376c-.292-.21-.793-.313-1.232-.313-.855 0-1.648.48-1.857 1.482v5.99h-2.087v-9.268h2.087v.96c.355-.688 1.169-1.168 2.066-1.168.46 0 .877.083 1.023.167v2.15zM96.02 48.73l1.315-3.298-3.59-9.517h2.233L98.4 42.74l2.38-6.825h2.15L98.045 48.73h-2.024zm7.06-5.096h-.192v.258h.192c.093 0 .143-.055.143-.126 0-.077-.05-.132-.143-.132zm-.192.478v.346h-.275v-1.054h.489c.236 0 .384.132.384.362 0 .165-.077.274-.209.318l.247.374h-.301l-.22-.346h-.115zm.131-1.01c-.45 0-.812.346-.812.834 0 .489.362.834.812.834.45 0 .813-.345.813-.834 0-.488-.362-.834-.813-.834zm0 1.839a.985.985 0 0 1-.993-1.005c0-.582.45-1.004.993-1.004.544 0 .994.422.994 1.004a.985.985 0 0 1-.994 1.005zM14.634 15.375h2.838v-2.838h-2.838v2.838zm-2.838 2.838V9.698h8.515v8.515h-8.515zM6.12 4.023h8.514V6.86H8.958V20.36l7.096 2.014 7.094-2.014v-4.985h2.838v7.161l-9.932 2.82-9.934-2.82V4.023zm17.028 8.514V9.698h2.838v2.839h-2.838zM17.472 6.86V4.023h2.838V6.86h-2.838zm5.676 0V4.023h2.838V6.86h-2.838z" fill="#FFAE1A"/><path d="M41.265 8.733c.96 0 1.532-.773 1.532-1.789 0-1.03-.573-1.803-1.532-1.803-.529 0-.987.315-1.202.744V7.99c.215.443.687.744 1.202.744zm.401-5.138c1.86 0 2.92 1.546 2.92 3.35 0 1.802-1.06 3.334-2.92 3.334-.687 0-1.317-.33-1.603-.673v2.891h-1.775V3.738h1.775v.53c.286-.344.916-.673 1.603-.673zm7.572 4.208V3.738h1.789v6.398h-1.775v-.587c-.358.4-.974.73-1.717.73-1.432 0-2.248-.945-2.248-2.362V3.738h1.775V7.56c0 .672.33 1.13 1.03 1.13.545 0 1.017-.329 1.146-.887zm5.94.93c.959 0 1.53-.773 1.53-1.789 0-1.03-.571-1.803-1.53-1.803-.53 0-.988.315-1.203.744V7.99c.215.443.687.744 1.202.744zm.4-5.138c1.86 0 2.92 1.546 2.92 3.35 0 1.802-1.06 3.334-2.92 3.334-.687 0-1.317-.33-1.603-.673v2.891H52.2V3.738h1.775v.53c.286-.344.916-.673 1.603-.673zm6.67 5.138c.96 0 1.531-.773 1.531-1.789 0-1.03-.572-1.803-1.531-1.803-.53 0-.988.315-1.202.744V7.99c.214.443.687.744 1.202.744zm.4-5.138c1.861 0 2.92 1.546 2.92 3.35 0 1.802-1.059 3.334-2.92 3.334-.686 0-1.316-.33-1.602-.673v2.891H59.27V3.738h1.775v.53c.286-.344.916-.673 1.603-.673zm5.11 2.648h2.476C70.22 5.57 69.82 5.04 69.09 5.04c-.687 0-1.173.414-1.33 1.202zm1.317-2.648c1.875 0 2.905 1.302 2.905 3.177v.544h-4.265c.058.96.601 1.531 1.389 1.531.601 0 1.045-.257 1.188-.8h1.646c-.23 1.359-1.231 2.232-2.834 2.232-1.86 0-3.106-1.36-3.106-3.335 0-1.932 1.288-3.35 3.077-3.35zm6.57 5.11c.272 0 .572-.086.772-.215v1.574c-.243.129-.672.2-1.144.2-1.303 0-2.119-.643-2.119-2.06V5.17h-.973V3.738h.973V2.007h1.76v1.731h1.403V5.17h-1.403v2.805c0 .5.272.73.73.73z" fill="#090A0A"/></g></svg>
